X: 1
T: John McHugh's
M: 6/8
L: 1/8
D: Dancing on Silver, Tim Collins
K: F
A2 c cdc|AGA FGA|GFD CDF|A/G/FD C2 B|
A2 c cdc|AGA FGA|GFD CDF|GAG F2 B:||
AGA FGA|BAB GAB|AGF FEF|GAB C2 B|
AGA FGA|BdB AcA|GFD CDF|GAG F2 B:||
